packages/icons/src/components/Logo/assets/dark/github.svg

<svg width="20" height="20" viewBox="0 0 20 20" fill="none" xmlns="http://www.w3.org/2000/svg">
<path fill-rule="evenodd" clip-rule="evenodd" d="M10 0.246094C4.47656 0.246094 0 4.72266 0 10.2461C0 14.6719 2.86328 18.4102 6.83594 19.7344C7.33594 19.8203 7.52344 19.5234 7.52344 19.2578C7.52344 19.0195 7.51172 18.2344 7.51172 17.3945C5 17.8555 4.34766 16.7812 4.14844 16.2188C4.03516 15.9297 3.54688 15.043 3.125 14.8047C2.77344 14.6172 2.27344 14.1563 3.11328 14.1406C3.90234 14.1289 4.46484 14.8672 4.65234 15.1641C5.55078 16.6758 6.98828 16.25 7.56641 15.9883C7.65234 15.3398 7.91797 14.9023 8.20312 14.6523C5.97656 14.4023 3.65234 13.5391 3.65234 9.71484C3.65234 8.62891 4.03906 7.72656 4.67578 7.02734C4.57422 6.77734 4.22656 5.75391 4.77734 4.37891C4.77734 4.37891 5.61328 4.11719 7.52734 5.40234C8.32812 5.17578 9.17578 5.06641 10.0273 5.06641C10.8789 5.06641 11.7266 5.17969 12.5273 5.40234C14.4414 4.10156 15.2773 4.37891 15.2773 4.37891C15.8281 5.75391 15.4766 6.77734 15.3789 7.02734C16.0156 7.72656 16.4023 8.61328 16.4023 9.71484C16.4023 13.5508 14.0664 14.4023 11.8398 14.6523C12.2031 14.9648 12.5156 15.5664 12.5156 16.5039C12.5156 17.8398 12.5039 18.918 12.5039 19.2539C12.5039 19.5156 12.6914 19.8281 13.1914 19.7305C17.1367 18.4102 20 14.6602 20 10.2461C20 4.72266 15.5234 0.246094 10 0.246094Z" fill="white"/>
</svg>

<svg xmlns="http://www.w3.org/2000/svg" width="20" height="20" fill="none" viewBox="0 0 20 20">
    <path fill="#fff" fill-rule="evenodd" d="M10 .246c-5.523 0-10 4.477-10 10a9.995 9.995 0 0 0 6.836 9.488c.5.086.687-.21.687-.476 0-.238-.011-1.024-.011-1.863-2.512.46-3.164-.614-3.364-1.176-.113-.29-.601-1.176-1.023-1.414-.352-.188-.852-.649-.012-.664.79-.012 1.352.726 1.54 1.023.898 1.512 2.335 1.086 2.913.824.086-.648.352-1.086.637-1.336-2.226-.25-4.55-1.113-4.55-4.937 0-1.086.386-1.988 1.023-2.688-.102-.25-.45-1.273.101-2.648 0 0 .836-.262 2.75 1.023a9.2 9.2 0 0 1 2.5-.336c.852 0 1.7.114 2.5.336 1.914-1.3 2.75-1.023 2.75-1.023.551 1.375.2 2.398.102 2.648.637.7 1.023 1.586 1.023 2.688 0 3.836-2.336 4.687-4.562 4.937.363.313.676.914.676 1.852 0 1.336-.012 2.414-.012 2.75 0 .262.187.574.687.476A10.01 10.01 0 0 0 20 10.247c0-5.523-4.477-10-10-10" clip-rule="evenodd"/>
</svg>
